blockchains/iotex/logo.svg

<svg fill="none" height="250" viewBox="0 0 250 250" width="250" xmlns="http://www.w3.org/2000/svg" xmlns:xlink="http://www.w3.org/1999/xlink"><clipPath id="a"><path d="m0 0h250v250h-250z"/></clipPath><g clip-path="url(#a)"><path d="m125 250c69.036 0 125-55.964 125-125 0-69.0356-55.964-125-125-125-69.0356 0-125 55.9644-125 125 0 69.036 55.9644 125 125 125z" fill="#000"/><g fill="#00d4d5"><path d="m129.055 39.0625v42.6328l37.015-21.2891z"/><path d="m166.07 60.4062v42.6328l37.008-21.3437z" opacity=".9"/><path d="m129.055 81.6953v42.6327l37.015-21.289zm37.015 21.3517v42.625l37.008-21.344z" opacity=".8"/><path d="m129.055 124.328v42.633l37.015-21.289z" opacity=".8"/><path d="m166.07 145.672v42.633l37.008-21.344z"/><path d="m33.3828 80.2578v42.6332l37.0156-21.344z" opacity=".4"/><path d="m80.0781 96.1094v42.6326l36.9529-21.289z" opacity=".2"/><path d="m52.6406 123.07v42.633l37.0078-21.344z" opacity=".3"/><path d="m77.0312 155.242v42.633l36.9528-21.344z" opacity=".9"/><path d="m128.75 173.594v42.64l36.953-21.351z" opacity=".7"/><path d="m86.2422 75.0547v42.6403l36.9528-21.2888z" opacity=".9"/><path d="m129.055 39.0625v42.6328l-37.0159-21.2891z" opacity=".8"/><path d="m86.2422 57.1875v42.625l-37.0234-21.3438z" opacity=".6"/><path d="m123.258 78.2812v42.6408l-37.0158-21.3517z" opacity=".6"/><path d="m79.9062 96.1094v42.6326l-37.0156-21.289z" opacity=".95"/><path d="m129.055 124.328v42.633l-36.9534-21.289z" opacity=".6"/><path d="m52.6406 134.258v42.633l-37.0156-21.352z" opacity=".55"/><path d="m203.078 81.6953v42.6327l-37.008-21.289z"/><path d="m166.07 103.047v42.625l-37.015-21.344z" opacity=".95"/><path d="m203.078 124.328v42.633l-37.008-21.289z" opacity=".9"/><path d="m166.07 145.672v42.633l-37.015-21.344z" opacity=".7"/><path d="m120.859 163.438v42.632l-37.0074-21.289z" opacity=".4"/><path d="m166.07 60.4062v42.6328l-37.015-21.3437z"/></g></g></svg>

<svg width="250" height="250" viewBox="0 0 250 250" fill="none" xmlns="http://www.w3.org/2000/svg">
<g clip-path="url(#clip0_50_11640)">
<path d="M125 250C194.036 250 250 194.036 250 125C250 55.9644 194.036 0 125 0C55.9644 0 0 55.9644 0 125C0 194.036 55.9644 250 125 250Z" fill="black"/>
<path d="M129.055 39.0625V81.6953L166.07 60.4062L129.055 39.0625Z" fill="#00D4D5"/>
<path opacity="0.9" d="M166.07 60.4062V103.039L203.078 81.6953L166.07 60.4062Z" fill="#00D4D5"/>
<path opacity="0.8" d="M129.055 81.6953V124.328L166.07 103.039L129.055 81.6953ZM166.07 103.047V145.672L203.078 124.328L166.07 103.047Z" fill="#00D4D5"/>
<path opacity="0.8" d="M129.055 124.328V166.961L166.07 145.672L129.055 124.328Z" fill="#00D4D5"/>
<path d="M166.07 145.672V188.305L203.078 166.961L166.07 145.672Z" fill="#00D4D5"/>
<path opacity="0.4" d="M33.3828 80.2578V122.891L70.3984 101.547L33.3828 80.2578Z" fill="#00D4D5"/>
<path opacity="0.2" d="M80.0781 96.1094V138.742L117.031 117.453L80.0781 96.1094Z" fill="#00D4D5"/>
<path opacity="0.3" d="M52.6406 123.07V165.703L89.6484 144.359L52.6406 123.07Z" fill="#00D4D5"/>
<path opacity="0.9" d="M77.0312 155.242V197.875L113.984 176.531L77.0312 155.242Z" fill="#00D4D5"/>
<path opacity="0.7" d="M128.75 173.594V216.234L165.703 194.883L128.75 173.594Z" fill="#00D4D5"/>
<path opacity="0.9" d="M86.2422 75.0547V117.695L123.195 96.4062L86.2422 75.0547Z" fill="#00D4D5"/>
<path opacity="0.8" d="M129.055 39.0625V81.6953L92.0391 60.4062L129.055 39.0625Z" fill="#00D4D5"/>
<path opacity="0.6" d="M86.2422 57.1875V99.8125L49.2188 78.4687L86.2422 57.1875Z" fill="#00D4D5"/>
<path opacity="0.6" d="M123.258 78.2812V120.922L86.2422 99.5703L123.258 78.2812Z" fill="#00D4D5"/>
<path opacity="0.95" d="M79.9062 96.1094V138.742L42.8906 117.453L79.9062 96.1094Z" fill="#00D4D5"/>
<path opacity="0.6" d="M129.055 124.328V166.961L92.1016 145.672L129.055 124.328Z" fill="#00D4D5"/>
<path opacity="0.55" d="M52.6406 134.258V176.891L15.625 155.539L52.6406 134.258Z" fill="#00D4D5"/>
<path d="M203.078 81.6953V124.328L166.07 103.039L203.078 81.6953Z" fill="#00D4D5"/>
<path opacity="0.95" d="M166.07 103.047V145.672L129.055 124.328L166.07 103.047Z" fill="#00D4D5"/>
<path opacity="0.9" d="M203.078 124.328V166.961L166.07 145.672L203.078 124.328Z" fill="#00D4D5"/>
<path opacity="0.7" d="M166.07 145.672V188.305L129.055 166.961L166.07 145.672Z" fill="#00D4D5"/>
<path opacity="0.4" d="M120.859 163.438V206.07L83.8516 184.781L120.859 163.438Z" fill="#00D4D5"/>
<path d="M166.07 60.4062V103.039L129.055 81.6953L166.07 60.4062Z" fill="#00D4D5"/>
</g>
<defs>
<clipPath id="clip0_50_11640">
<rect width="250" height="250" fill="white"/>
</clipPath>
</defs>
</svg>
